src/icons/chatbubbles.svg

<svg xmlns="http://www.w3.org/2000/svg" width="512" height="512" viewBox="0 0 512 512">
    <path d="M133.9 216.2c-1.8 8.5-2.8 17.3-2.8 26.4 0 71.2 59.9 128.9 133.7 128.9 11.7 0 23-1.6 33.9-4.4-21 24.7-52.8 40.5-88.4 40.5-15.8 0-30.9-3.2-44.6-8.8-.3-.2-.6-.2-.9-.4h-.2c-2-.7-4-1.1-6.2-1.1-2.4 0-4.6.5-6.7 1.3l-43.3 17 9.3-48.3c0-3-.8-5.6-2.2-7.9-.5-.7-.9-1.6-1.4-2.2C102.6 340 96 319.4 96 297.5c0-32.3 14.5-61.3 37.9-81.3zM282.5 96.4c73.9 0 133.7 57.7 133.5 128.7 0 25.7-7.8 49.6-21.2 69.7-.5.8-1.1 1.6-1.6 2.4-1.6 2.8-2.5 6-2.5 9.4l13.1 56.8-52.8-19.9c-2.4-1-5-1.5-7.8-1.5-2.5 0-5 .5-7.2 1.3 0 .1-.1.1-.2.1-.4.2-.7.3-1.1.5-5.9 2.4-12.1 4.3-18.3 5.9-10.8 2.8-22.1 4.4-33.9 4.4-73.9 0-133.7-57.7-133.7-128.9 0-9.1 1-17.9 2.8-26.4 12.7-58.5 66.5-102.5 130.9-102.5z"/>
</svg>

<?xml version="1.0" encoding="UTF-8"?>
<svg width="512px" height="512px" viewBox="0 0 512 512" version="1.1" xmlns="http://www.w3.org/2000/svg" xmlns:xlink="http://www.w3.org/1999/xlink">
    <!-- Generator: Sketch 62 (91390) - https://sketch.com -->
    <title>chatbubbles</title>
    <desc>Created with Sketch.</desc>
    <g id="chatbubbles" stroke="none" stroke-width="1" fill="none" fill-rule="evenodd">
        <path d="M133.9,216.2 C132.1,224.7 131.1,233.5 131.1,242.6 C131.1,313.8 191,371.5 264.8,371.5 C276.5,371.5 287.8,369.9 298.7,367.1 C277.7,391.8 245.9,407.6 210.3,407.6 C194.5,407.6 179.4,404.4 165.7,398.8 C165.4,398.6 165.1,398.6 164.8,398.4 L164.8,398.4 L164.6,398.4 C162.6,397.7 160.6,397.3 158.4,397.3 C156,397.3 153.8,397.8 151.7,398.6 L151.7,398.6 L108.4,415.6 L117.7,367.3 C117.7,364.3 116.9,361.7 115.5,359.4 C115,358.7 114.6,357.8 114.1,357.2 C102.6,340 96,319.4 96,297.5 C96,265.2 110.5,236.2 133.9,216.2 Z M282.5,96.4 C356.4,96.4 416.2,154.1 416.0005,225.1 C416.0005,250.8 408.2,274.7 394.8,294.8 C394.3,295.6 393.7,296.4 393.2,297.2 C391.6,300 390.7,303.2 390.7,306.6 L390.7,306.6 L403.8,363.4 L351,343.5 C348.6,342.5 346,342 343.2,342 C340.7,342 338.2,342.5 336,343.3 C336,343.4 335.9,343.4 335.8,343.4 C335.4,343.6 335.1,343.7 334.7,343.9 C328.8,346.3 322.6,348.2 316.4,349.8 C305.6,352.6 294.3,354.2 282.5,354.2 C208.6,354.2 148.8,296.5 148.8,225.3 C148.8,216.2 149.8,207.4 151.6,198.9 C164.3,140.4 218.1,96.4 282.5,96.4 Z" id="Combined-Shape" fill="#000000" fill-rule="nonzero"></path>
    </g>
</svg>
